Numix/22/status/aptdaemon-working.svg

<?xml version="1.0" encoding="UTF-8" standalone="no"?>
<svg
   xmlns:dc="http://purl.org/dc/elements/1.1/"
   xmlns:cc="http://creativecommons.org/ns#"
   xmlns:rdf="http://www.w3.org/1999/02/22-rdf-syntax-ns#"
   xmlns:svg="http://www.w3.org/2000/svg"
   xmlns="http://www.w3.org/2000/svg"
   xmlns:sodipodi="http://sodipodi.sourceforge.net/DTD/sodipodi-0.dtd"
   xmlns:inkscape="http://www.inkscape.org/namespaces/inkscape"
   width="22"
   height="22"
   viewBox="0 0 22 22"
   id="svg2"
   version="1.1"
   inkscape:version="0.91 r"
   sodipodi:docname="aptdaemon-working.svg">
  <metadata
     id="metadata10">
    <rdf:RDF>
      <cc:Work
         rdf:about="">
        <dc:format>image/svg+xml</dc:format>
        <dc:type
           rdf:resource="http://purl.org/dc/dcmitype/StillImage" />
        <dc:title></dc:title>
      </cc:Work>
    </rdf:RDF>
  </metadata>
  <defs
     id="defs8" />
  <sodipodi:namedview
     pagecolor="#ffffff"
     bordercolor="#666666"
     borderopacity="1"
     objecttolerance="10"
     gridtolerance="10"
     guidetolerance="10"
     inkscape:pageopacity="0"
     inkscape:pageshadow="2"
     inkscape:window-width="1920"
     inkscape:window-height="1056"
     id="namedview6"
     showgrid="true"
     inkscape:zoom="11.313709"
     inkscape:cx="-8.1165634"
     inkscape:cy="1.0151631"
     inkscape:window-x="0"
     inkscape:window-y="24"
     inkscape:window-maximized="1"
     inkscape:current-layer="svg2">
    <inkscape:grid
       type="xygrid"
       id="grid4138" />
  </sodipodi:namedview>
  <path
     style="fill:#c28e5c"
     d="M 7 3 L 3 7 L 10 7 L 10 3 L 7 3 z M 12 3 L 12 7 L 19 7 L 15 3 L 12 3 z M 3 9 L 3 19 L 12.603516 19 C 12.290389 17.277277 12.792322 15.429675 14.111328 14.111328 C 15.176749 13.045375 16.595513 12.5 18 12.5 C 18.33407 12.5 18.669243 12.532335 19 12.59375 L 19 9 L 3 9 z "
     id="path4-6-7" />
  <g
     id="g4147-5"
     transform="matrix(0.225,0,0,0.225,-20.615804,12.048856)"
     style="fill:#ee545b;fill-opacity:1;stroke:#000000;stroke-width:17.77777863;stroke-miterlimit:4;stroke-dasharray:none;stroke-opacity:1" />
  <g
     id="g4147-3"
     transform="matrix(0.175,0,0,0.175,13.8,13.8)"
     style="fill:#ee545b;fill-opacity:1;stroke:#000000;stroke-opacity:1;stroke-width:22.85714286;stroke-miterlimit:4;stroke-dasharray:none" />
  <path
     style="opacity:1;fill:none;fill-opacity:1;fill-rule:nonzero;stroke:#4db147;stroke-width:0.99999994;stroke-linecap:butt;stroke-linejoin:miter;stroke-miterlimit:4;stroke-dasharray:none;stroke-dashoffset:0;stroke-opacity:1"
     id="path4138"
     sodipodi:type="arc"
     sodipodi:cx="17.997211"
     sodipodi:cy="-17.999035"
     sodipodi:rx="2.9993999"
     sodipodi:ry="3.0027571"
     sodipodi:start="4.712389"
     sodipodi:end="3.1415927"
     sodipodi:open="true"
     d="m 17.997212,-21.001792 a 2.9993999,3.0027571 0 0 1 2.771084,1.853652 2.9993999,3.0027571 0 0 1 -0.650189,3.272375 2.9993999,3.0027571 0 0 1 -3.268716,0.650916 2.9993999,3.0027571 0 0 1 -1.851579,-2.774186"
     transform="matrix(0,1,-1,0,0,0)" />
</svg>

<svg xmlns="http://www.w3.org/2000/svg" viewBox="0 0 22 22">
 <path d="m 7 3 l -4 4 l 7 0 l 0 -4 l -3 0 z m 5 0 l 0 4 l 7 0 l -4 -4 l -3 0 z m -9 6 l 0 10 l 9.604 0 c -0.313 -1.723 0.189 -3.57 1.508 -4.889 c 1.065 -1.066 2.484 -1.611 3.889 -1.611 c 0.334 0 0.669 0.032 1 0.094 l 0 -3.594 l -16 0 z" style="fill:#c28e5c"/>
 <path d="m 17.997 -21 a 2.999 3 0 0 1 2.771 1.854 2.999 3 0 0 1 -0.65 3.272 2.999 3 0 0 1 -3.269 0.651 2.999 3 0 0 1 -1.852 -2.774" transform="matrix(0,1,-1,0,0,0)" style="stroke-dasharray:none;stroke-opacity:1;fill:none;opacity:1;stroke-miterlimit:4;fill-opacity:1;stroke:#4db147;fill-rule:nonzero;stroke-linecap:butt;stroke-linejoin:miter;stroke-width:1;stroke-dashoffset:0"/>
</svg>
